X:448
T: Abschied vom Liebchen (163), S. 357
N: T0336
O: Luxemburg
S: Singendes Volk, Esch-Alzette, 1937 posth.]
N: Blascheid, hhh Nikolaus Perl, 1902
R: Abschieds- und Wanderlieder, Heimatlieder,  Liebeslied]
M: 4/8
L: 1/16
K: F
C2 | F2F2F2F2 | F2A2G2F2 | G4z2
C2 | G2G2G2G2 | G2B2A2G2 | A8
c8 | A2A2A2A2 | A2c2c2
BA | c2G2G2G2 | B2d2c2B2
c2c2c2B2 | A4z2

